images/29685.svg

<?xml version="1.0" encoding="UTF-8"?>
<svg xmlns="http://www.w3.org/2000/svg" xmlns:xlink="http://www.w3.org/1999/xlink" width="300pt" height="300pt" viewBox="0 0 300 300" version="1.1">
<defs>
<g>
<symbol overflow="visible" id="glyph0-0">
<path style="stroke:none;" d="M 0.546875 1.9375 L 0.546875 -7.75 L 6.046875 -7.75 L 6.046875 1.9375 Z M 1.171875 1.328125 L 5.4375 1.328125 L 5.4375 -7.140625 L 1.171875 -7.140625 Z M 1.171875 1.328125 "/>
</symbol>
<symbol overflow="visible" id="glyph0-1">
<path style="stroke:none;" d="M 1.078125 -8.015625 L 5.6875 -8.015625 L 5.6875 -7.109375 L 2.171875 -7.109375 L 2.171875 -4.75 L 5.34375 -4.75 L 5.34375 -3.828125 L 2.171875 -3.828125 L 2.171875 0 L 1.078125 0 Z M 1.078125 -8.015625 "/>
</symbol>
<symbol overflow="visible" id="glyph0-2">
<path style="stroke:none;" d="M 1.078125 -8.015625 L 2.546875 -8.015625 L 6.09375 -1.3125 L 6.09375 -8.015625 L 7.15625 -8.015625 L 7.15625 0 L 5.6875 0 L 2.125 -6.703125 L 2.125 0 L 1.078125 0 Z M 1.078125 -8.015625 "/>
</symbol>
<symbol overflow="visible" id="glyph0-3">
<path style="stroke:none;" d="M 4.328125 -7.28125 C 3.546875 -7.28125 2.921875 -6.984375 2.453125 -6.390625 C 1.992188 -5.804688 1.765625 -5.007812 1.765625 -4 C 1.765625 -2.988281 1.992188 -2.1875 2.453125 -1.59375 C 2.921875 -1.007812 3.546875 -0.71875 4.328125 -0.71875 C 5.117188 -0.71875 5.742188 -1.007812 6.203125 -1.59375 C 6.660156 -2.1875 6.890625 -2.988281 6.890625 -4 C 6.890625 -5.007812 6.660156 -5.804688 6.203125 -6.390625 C 5.742188 -6.984375 5.117188 -7.28125 4.328125 -7.28125 Z M 4.328125 -8.171875 C 5.453125 -8.171875 6.351562 -7.789062 7.03125 -7.03125 C 7.707031 -6.28125 8.046875 -5.269531 8.046875 -4 C 8.046875 -2.738281 7.707031 -1.726562 7.03125 -0.96875 C 6.351562 -0.21875 5.453125 0.15625 4.328125 0.15625 C 3.203125 0.15625 2.300781 -0.21875 1.625 -0.96875 C 0.957031 -1.71875 0.625 -2.726562 0.625 -4 C 0.625 -5.269531 0.957031 -6.28125 1.625 -7.03125 C 2.300781 -7.789062 3.203125 -8.171875 4.328125 -8.171875 Z M 4.328125 -8.171875 "/>
</symbol>
</g>
</defs>
<g id="surface26365">
<rect x="0" y="0" width="300" height="300" style="fill:rgb(100%,100%,100%);fill-opacity:1;stroke:none;"/>
<path style="fill:none;stroke-width:1.2;stroke-linecap:butt;stroke-linejoin:miter;stroke:rgb(20%,80%,80%);stroke-opacity:1;stroke-miterlimit:10;" d="M 47.484375 116.199219 L 52.902344 129.117188 "/>
<path style="fill:none;stroke-width:1.2;stroke-linecap:butt;stroke-linejoin:miter;stroke:rgb(0%,0%,0%);stroke-opacity:1;stroke-miterlimit:10;" d="M 52.902344 129.117188 L 58.320312 142.03125 "/>
<path style=" stroke:none;fill-rule:nonzero;fill:rgb(100%,100%,100%);fill-opacity:1;" d="M 40.484375 109.699219 L 47.484375 109.699219 L 47.484375 122.699219 L 40.484375 122.699219 Z M 40.484375 109.699219 "/>
<g style="fill:rgb(20%,80%,80%);fill-opacity:1;">
  <use xlink:href="#glyph0-1" x="40.484375" y="119.600586"/>
</g>
<path style="fill:none;stroke-width:1.2;stroke-linecap:butt;stroke-linejoin:miter;stroke:rgb(0%,0%,0%);stroke-opacity:1;stroke-miterlimit:10;" d="M 58.320312 142.03125 L 41.367188 164.335938 "/>
<path style="fill:none;stroke-width:1.2;stroke-linecap:butt;stroke-linejoin:miter;stroke:rgb(0%,0%,0%);stroke-opacity:1;stroke-miterlimit:10;" d="M 61.875 148.253906 L 48.308594 166.09375 "/>
<path style="fill:none;stroke-width:1.2;stroke-linecap:butt;stroke-linejoin:miter;stroke:rgb(0%,0%,0%);stroke-opacity:1;stroke-miterlimit:10;" d="M 86.113281 145.566406 L 58.320312 142.03125 "/>
<path style="fill:none;stroke-width:1.2;stroke-linecap:butt;stroke-linejoin:miter;stroke:rgb(0%,0%,0%);stroke-opacity:1;stroke-miterlimit:10;" d="M 41.367188 164.335938 L 52.203125 190.171875 "/>
<path style="fill:none;stroke-width:1.2;stroke-linecap:butt;stroke-linejoin:miter;stroke:rgb(0%,0%,0%);stroke-opacity:1;stroke-miterlimit:10;" d="M 52.203125 190.171875 L 43.726562 201.320312 "/>
<path style="fill:none;stroke-width:1.2;stroke-linecap:butt;stroke-linejoin:miter;stroke:rgb(20%,80%,80%);stroke-opacity:1;stroke-miterlimit:10;" d="M 43.726562 201.320312 L 35.25 212.472656 "/>
<path style="fill:none;stroke-width:1.2;stroke-linecap:butt;stroke-linejoin:miter;stroke:rgb(0%,0%,0%);stroke-opacity:1;stroke-miterlimit:10;" d="M 52.203125 190.171875 L 79.996094 193.703125 "/>
<path style="fill:none;stroke-width:1.2;stroke-linecap:butt;stroke-linejoin:miter;stroke:rgb(0%,0%,0%);stroke-opacity:1;stroke-miterlimit:10;" d="M 55.816406 183.984375 L 78.046875 186.808594 "/>
<path style=" stroke:none;fill-rule:nonzero;fill:rgb(100%,100%,100%);fill-opacity:1;" d="M 28.25 205.972656 L 35.25 205.972656 L 35.25 218.972656 L 28.25 218.972656 Z M 28.25 205.972656 "/>
<g style="fill:rgb(20%,80%,80%);fill-opacity:1;">
  <use xlink:href="#glyph0-1" x="28.25" y="215.874023"/>
</g>
<path style="fill:none;stroke-width:1.2;stroke-linecap:butt;stroke-linejoin:miter;stroke:rgb(0%,0%,0%);stroke-opacity:1;stroke-miterlimit:10;" d="M 79.996094 193.703125 L 85.414062 206.617188 "/>
<path style="fill:none;stroke-width:1.2;stroke-linecap:butt;stroke-linejoin:miter;stroke:rgb(20%,80%,80%);stroke-opacity:1;stroke-miterlimit:10;" d="M 85.414062 206.617188 L 90.832031 219.535156 "/>
<path style="fill:none;stroke-width:1.2;stroke-linecap:butt;stroke-linejoin:miter;stroke:rgb(0%,0%,0%);stroke-opacity:1;stroke-miterlimit:10;" d="M 79.996094 193.703125 L 96.949219 171.398438 "/>
<path style=" stroke:none;fill-rule:nonzero;fill:rgb(100%,100%,100%);fill-opacity:1;" d="M 87.832031 213.035156 L 94.832031 213.035156 L 94.832031 226.035156 L 87.832031 226.035156 Z M 87.832031 213.035156 "/>
<g style="fill:rgb(20%,80%,80%);fill-opacity:1;">
  <use xlink:href="#glyph0-1" x="87.832031" y="222.936523"/>
</g>
<path style="fill:none;stroke-width:1.2;stroke-linecap:butt;stroke-linejoin:miter;stroke:rgb(0%,0%,0%);stroke-opacity:1;stroke-miterlimit:10;" d="M 96.949219 171.398438 L 86.113281 145.566406 "/>
<path style="fill:none;stroke-width:1.2;stroke-linecap:butt;stroke-linejoin:miter;stroke:rgb(0%,0%,0%);stroke-opacity:1;stroke-miterlimit:10;" d="M 89.789062 171.367188 L 81.117188 150.699219 "/>
<path style="fill:none;stroke-width:1.2;stroke-linecap:butt;stroke-linejoin:miter;stroke:rgb(0%,0%,0%);stroke-opacity:1;stroke-miterlimit:10;" d="M 86.113281 145.566406 L 103.066406 123.261719 "/>
<path style="fill:none;stroke-width:1.2;stroke-linecap:butt;stroke-linejoin:miter;stroke:rgb(0%,0%,0%);stroke-opacity:1;stroke-miterlimit:10;" d="M 103.066406 123.261719 L 99.027344 109.847656 "/>
<path style="fill:none;stroke-width:1.2;stroke-linecap:butt;stroke-linejoin:miter;stroke:rgb(0%,0%,100%);stroke-opacity:1;stroke-miterlimit:10;" d="M 99.027344 109.847656 L 94.988281 96.4375 "/>
<path style="fill:none;stroke-width:1.2;stroke-linecap:butt;stroke-linejoin:miter;stroke:rgb(0%,0%,0%);stroke-opacity:1;stroke-miterlimit:10;" d="M 131.078125 123.867188 L 103.066406 123.261719 "/>
<path style="fill:none;stroke-width:1.2;stroke-linecap:butt;stroke-linejoin:miter;stroke:rgb(0%,0%,0%);stroke-opacity:1;stroke-miterlimit:10;" d="M 128.417969 117.21875 L 106.011719 116.730469 "/>
<path style="fill:none;stroke-width:1.2;stroke-linecap:butt;stroke-linejoin:miter;stroke:rgb(0%,0%,100%);stroke-opacity:1;stroke-miterlimit:10;" d="M 94.988281 96.4375 L 106.5 88.449219 "/>
<path style="fill:none;stroke-width:1.2;stroke-linecap:butt;stroke-linejoin:miter;stroke:rgb(0%,0%,0%);stroke-opacity:1;stroke-miterlimit:10;" d="M 106.5 88.449219 L 118.007812 80.464844 "/>
<path style="fill:none;stroke-width:1.2;stroke-linecap:butt;stroke-linejoin:miter;stroke:rgb(0%,0%,100%);stroke-opacity:1;stroke-miterlimit:10;" d="M 101.050781 100.253906 L 110.257812 93.867188 "/>
<path style="fill:none;stroke-width:1.2;stroke-linecap:butt;stroke-linejoin:miter;stroke:rgb(0%,0%,0%);stroke-opacity:1;stroke-miterlimit:10;" d="M 110.257812 93.867188 L 119.464844 87.476562 "/>
<path style=" stroke:none;fill-rule:nonzero;fill:rgb(100%,100%,100%);fill-opacity:1;" d="M 90.988281 89.9375 L 98.988281 89.9375 L 98.988281 102.9375 L 90.988281 102.9375 Z M 90.988281 89.9375 "/>
<g style="fill:rgb(0%,0%,100%);fill-opacity:1;">
  <use xlink:href="#glyph0-2" x="90.988281" y="99.838867"/>
</g>
<path style="fill:none;stroke-width:1.2;stroke-linecap:butt;stroke-linejoin:miter;stroke:rgb(0%,0%,0%);stroke-opacity:1;stroke-miterlimit:10;" d="M 118.007812 80.464844 L 129.15625 88.941406 "/>
<path style="fill:none;stroke-width:1.2;stroke-linecap:butt;stroke-linejoin:miter;stroke:rgb(100%,0%,0%);stroke-opacity:1;stroke-miterlimit:10;" d="M 129.15625 88.941406 L 140.308594 97.417969 "/>
<path style="fill:none;stroke-width:1.2;stroke-linecap:butt;stroke-linejoin:miter;stroke:rgb(100%,0%,0%);stroke-opacity:1;stroke-miterlimit:10;" d="M 140.308594 97.417969 L 135.691406 110.644531 "/>
<path style="fill:none;stroke-width:1.2;stroke-linecap:butt;stroke-linejoin:miter;stroke:rgb(0%,0%,0%);stroke-opacity:1;stroke-miterlimit:10;" d="M 135.691406 110.644531 L 131.078125 123.867188 "/>
<path style=" stroke:none;fill-rule:nonzero;fill:rgb(100%,100%,100%);fill-opacity:1;" d="M 136.308594 90.917969 L 145.308594 90.917969 L 145.308594 103.917969 L 136.308594 103.917969 Z M 136.308594 90.917969 "/>
<g style="fill:rgb(100%,0%,0%);fill-opacity:1;">
  <use xlink:href="#glyph0-3" x="136.308594" y="100.819336"/>
</g>
<path style="fill:none;stroke-width:1.2;stroke-linecap:butt;stroke-linejoin:miter;stroke:rgb(0%,0%,0%);stroke-opacity:1;stroke-miterlimit:10;" d="M 131.078125 123.867188 L 147.046875 146.886719 "/>
<path style="fill:none;stroke-width:1.2;stroke-linecap:butt;stroke-linejoin:miter;stroke:rgb(0%,0%,0%);stroke-opacity:1;stroke-miterlimit:10;" d="M 147.046875 146.886719 L 135.101562 172.226562 "/>
<path style="fill:none;stroke-width:1.2;stroke-linecap:butt;stroke-linejoin:miter;stroke:rgb(0%,0%,0%);stroke-opacity:1;stroke-miterlimit:10;" d="M 147.046875 146.886719 L 174.96875 144.5625 "/>
<path style="fill:none;stroke-width:1.2;stroke-linecap:butt;stroke-linejoin:miter;stroke:rgb(0%,0%,0%);stroke-opacity:1;stroke-miterlimit:10;" d="M 150.386719 153.222656 L 172.722656 151.363281 "/>
<path style="fill:none;stroke-width:1.2;stroke-linecap:butt;stroke-linejoin:miter;stroke:rgb(0%,0%,0%);stroke-opacity:1;stroke-miterlimit:10;" d="M 135.101562 172.226562 L 151.074219 195.242188 "/>
<path style="fill:none;stroke-width:1.2;stroke-linecap:butt;stroke-linejoin:miter;stroke:rgb(0%,0%,0%);stroke-opacity:1;stroke-miterlimit:10;" d="M 142.113281 170.769531 L 154.890625 189.183594 "/>
<path style="fill:none;stroke-width:1.2;stroke-linecap:butt;stroke-linejoin:miter;stroke:rgb(0%,0%,0%);stroke-opacity:1;stroke-miterlimit:10;" d="M 151.074219 195.242188 L 178.992188 192.917969 "/>
<path style="fill:none;stroke-width:1.2;stroke-linecap:butt;stroke-linejoin:miter;stroke:rgb(0%,0%,0%);stroke-opacity:1;stroke-miterlimit:10;" d="M 178.992188 192.917969 L 184.964844 180.25 "/>
<path style="fill:none;stroke-width:1.2;stroke-linecap:butt;stroke-linejoin:miter;stroke:rgb(0%,0%,100%);stroke-opacity:1;stroke-miterlimit:10;" d="M 184.964844 180.25 L 190.941406 167.578125 "/>
<path style="fill:none;stroke-width:1.2;stroke-linecap:butt;stroke-linejoin:miter;stroke:rgb(0%,0%,100%);stroke-opacity:1;stroke-miterlimit:10;" d="M 199.402344 212.113281 L 189.195312 202.515625 "/>
<path style="fill:none;stroke-width:1.2;stroke-linecap:butt;stroke-linejoin:miter;stroke:rgb(0%,0%,0%);stroke-opacity:1;stroke-miterlimit:10;" d="M 189.195312 202.515625 L 178.992188 192.917969 "/>
<path style="fill:none;stroke-width:1.2;stroke-linecap:butt;stroke-linejoin:miter;stroke:rgb(0%,0%,100%);stroke-opacity:1;stroke-miterlimit:10;" d="M 201.875 205.390625 L 193.710938 197.714844 "/>
<path style="fill:none;stroke-width:1.2;stroke-linecap:butt;stroke-linejoin:miter;stroke:rgb(0%,0%,0%);stroke-opacity:1;stroke-miterlimit:10;" d="M 193.710938 197.714844 L 185.550781 190.035156 "/>
<path style="fill:none;stroke-width:1.2;stroke-linecap:butt;stroke-linejoin:miter;stroke:rgb(0%,0%,100%);stroke-opacity:1;stroke-miterlimit:10;" d="M 190.941406 167.578125 L 182.953125 156.070312 "/>
<path style="fill:none;stroke-width:1.2;stroke-linecap:butt;stroke-linejoin:miter;stroke:rgb(0%,0%,0%);stroke-opacity:1;stroke-miterlimit:10;" d="M 182.953125 156.070312 L 174.96875 144.5625 "/>
<path style="fill:none;stroke-width:1.2;stroke-linecap:butt;stroke-linejoin:miter;stroke:rgb(0%,0%,100%);stroke-opacity:1;stroke-miterlimit:10;" d="M 190.941406 167.578125 L 204.835938 169.34375 "/>
<path style="fill:none;stroke-width:1.2;stroke-linecap:butt;stroke-linejoin:miter;stroke:rgb(0%,0%,0%);stroke-opacity:1;stroke-miterlimit:10;" d="M 204.835938 169.34375 L 218.730469 171.109375 "/>
<path style=" stroke:none;fill-rule:nonzero;fill:rgb(100%,100%,100%);fill-opacity:1;" d="M 186.941406 161.078125 L 194.941406 161.078125 L 194.941406 174.078125 L 186.941406 174.078125 Z M 186.941406 161.078125 "/>
<g style="fill:rgb(0%,0%,100%);fill-opacity:1;">
  <use xlink:href="#glyph0-2" x="186.941406" y="170.979492"/>
</g>
<path style="fill:none;stroke-width:1.2;stroke-linecap:butt;stroke-linejoin:miter;stroke:rgb(0%,0%,0%);stroke-opacity:1;stroke-miterlimit:10;" d="M 218.730469 171.109375 L 221.347656 184.871094 "/>
<path style="fill:none;stroke-width:1.2;stroke-linecap:butt;stroke-linejoin:miter;stroke:rgb(0%,0%,100%);stroke-opacity:1;stroke-miterlimit:10;" d="M 221.347656 184.871094 L 223.960938 198.632812 "/>
<path style="fill:none;stroke-width:1.2;stroke-linecap:butt;stroke-linejoin:miter;stroke:rgb(0%,0%,0%);stroke-opacity:1;stroke-miterlimit:10;" d="M 212.777344 175.09375 L 214.871094 186.101562 "/>
<path style="fill:none;stroke-width:1.2;stroke-linecap:butt;stroke-linejoin:miter;stroke:rgb(0%,0%,100%);stroke-opacity:1;stroke-miterlimit:10;" d="M 214.871094 186.101562 L 216.960938 197.109375 "/>
<path style="fill:none;stroke-width:1.2;stroke-linecap:butt;stroke-linejoin:miter;stroke:rgb(0%,0%,0%);stroke-opacity:1;stroke-miterlimit:10;" d="M 218.730469 171.109375 L 237.925781 150.703125 "/>
<path style="fill:none;stroke-width:1.2;stroke-linecap:butt;stroke-linejoin:miter;stroke:rgb(0%,0%,100%);stroke-opacity:1;stroke-miterlimit:10;" d="M 223.960938 198.632812 L 199.402344 212.113281 "/>
<path style=" stroke:none;fill-rule:nonzero;fill:rgb(100%,100%,100%);fill-opacity:1;" d="M 219.960938 192.132812 L 227.960938 192.132812 L 227.960938 205.132812 L 219.960938 205.132812 Z M 219.960938 192.132812 "/>
<g style="fill:rgb(0%,0%,100%);fill-opacity:1;">
  <use xlink:href="#glyph0-2" x="219.960938" y="202.03418"/>
</g>
<path style=" stroke:none;fill-rule:nonzero;fill:rgb(100%,100%,100%);fill-opacity:1;" d="M 195.402344 205.613281 L 203.402344 205.613281 L 203.402344 218.613281 L 195.402344 218.613281 Z M 195.402344 205.613281 "/>
<g style="fill:rgb(0%,0%,100%);fill-opacity:1;">
  <use xlink:href="#glyph0-2" x="195.402344" y="215.514648"/>
</g>
<path style="fill:none;stroke-width:1.2;stroke-linecap:butt;stroke-linejoin:miter;stroke:rgb(0%,0%,0%);stroke-opacity:1;stroke-miterlimit:10;" d="M 237.925781 150.703125 L 244.339844 123.429688 "/>
<path style="fill:none;stroke-width:1.2;stroke-linecap:butt;stroke-linejoin:miter;stroke:rgb(0%,0%,0%);stroke-opacity:1;stroke-miterlimit:10;" d="M 264.75 142.625 L 237.925781 150.703125 "/>
<path style="fill:none;stroke-width:1.2;stroke-linecap:butt;stroke-linejoin:miter;stroke:rgb(0%,0%,0%);stroke-opacity:1;stroke-miterlimit:10;" d="M 244.339844 123.429688 L 264.75 142.625 "/>
</g>
</svg>

<svg xmlns="http://www.w3.org/2000/svg" xmlns:xlink="http://www.w3.org/1999/xlink" width="300pt" height="300pt" viewBox="0 0 300 300"><defs><symbol overflow="visible"><path d="M.547 1.938V-7.75h5.5v9.688zm.625-.61h4.266v-8.47H1.171zm0 0"/></symbol><symbol overflow="visible" id="a"><path d="M1.078-8.016h4.61v.907H2.171v2.36h3.172v.922H2.172V0H1.078zm0 0"/></symbol><symbol overflow="visible" id="b"><path d="M1.078-8.016h1.47l3.546 6.704v-6.704h1.062V0H5.688L2.124-6.703V0H1.078zm0 0"/></symbol><symbol overflow="visible" id="c"><path d="M4.328-7.28c-.78 0-1.406.296-1.875.89-.46.585-.687 1.382-.687 2.39 0 1.012.226 1.813.687 2.406.47.586 1.094.875 1.875.875.79 0 1.414-.288 1.875-.874.457-.593.688-1.394.688-2.406 0-1.008-.23-1.805-.687-2.39-.46-.594-1.086-.89-1.875-.89zm0-.892c1.125 0 2.024.383 2.703 1.14C7.708-6.28 8.048-5.27 8.048-4c0 1.262-.34 2.273-1.016 3.03C6.353-.22 5.454.157 4.33.157S2.3-.22 1.625-.97c-.668-.75-1-1.757-1-3.03 0-1.27.332-2.28 1-3.03.676-.76 1.578-1.142 2.703-1.142zm0 0"/></symbol></defs><g><path fill="#fff" d="M0 0h300v300H0z"/><path d="M47.484 116.2l5.418 12.917" stroke-width="1.2" stroke="#3cc" stroke-miterlimit="10" fill="none"/><path d="M52.902 129.117l5.418 12.914" stroke-width="1.2" stroke="#000" stroke-miterlimit="10" fill="none"/><path d="M40.484 109.7h7v13h-7zm0 0" fill="#fff"/><use xlink:href="#a" x="40.484" y="119.601" fill="#3cc"/><path d="M58.32 142.03l-16.953 22.306M61.875 148.254l-13.566 17.84M86.113 145.566L58.32 142.03M41.367 164.336l10.836 25.836M52.203 190.172l-8.476 11.148" stroke-width="1.2" stroke="#000" stroke-miterlimit="10" fill="none"/><path d="M43.727 201.32l-8.477 11.153" stroke-width="1.2" stroke="#3cc" stroke-miterlimit="10" fill="none"/><path d="M52.203 190.172l27.793 3.53M55.816 183.984l22.23 2.825" stroke-width="1.2" stroke="#000" stroke-miterlimit="10" fill="none"/><path d="M28.25 205.973h7v13h-7zm0 0" fill="#fff"/><use xlink:href="#a" x="28.25" y="215.874" fill="#3cc"/><path d="M79.996 193.703l5.418 12.914" stroke-width="1.2" stroke="#000" stroke-miterlimit="10" fill="none"/><path d="M85.414 206.617l5.418 12.918" stroke-width="1.2" stroke="#3cc" stroke-miterlimit="10" fill="none"/><path d="M79.996 193.703l16.953-22.305" stroke-width="1.2" stroke="#000" stroke-miterlimit="10" fill="none"/><path d="M87.832 213.035h7v13h-7zm0 0" fill="#fff"/><use xlink:href="#a" x="87.832" y="222.937" fill="#3cc"/><path d="M96.95 171.398l-10.837-25.832M89.79 171.367L81.116 150.7M86.113 145.566l16.953-22.304M103.066 123.262l-4.04-13.414" stroke-width="1.2" stroke="#000" stroke-miterlimit="10" fill="none"/><path d="M99.027 109.848l-4.04-13.41" stroke-width="1.2" stroke="#00f" stroke-miterlimit="10" fill="none"/><path d="M131.078 123.867l-28.012-.605M128.418 117.22l-22.406-.49" stroke-width="1.2" stroke="#000" stroke-miterlimit="10" fill="none"/><path d="M94.988 96.438l11.512-7.99" stroke-width="1.2" stroke="#00f" stroke-miterlimit="10" fill="none"/><path d="M106.5 88.45l11.508-7.985" stroke-width="1.2" stroke="#000" stroke-miterlimit="10" fill="none"/><path d="M101.05 100.254l9.208-6.387" stroke-width="1.2" stroke="#00f" stroke-miterlimit="10" fill="none"/><path d="M110.258 93.867l9.207-6.39" stroke-width="1.2" stroke="#000" stroke-miterlimit="10" fill="none"/><path d="M90.988 89.938h8v13h-8zm0 0" fill="#fff"/><use xlink:href="#b" x="90.988" y="99.839" fill="#00f"/><path d="M118.008 80.465l11.148 8.476" stroke-width="1.2" stroke="#000" stroke-miterlimit="10" fill="none"/><path d="M129.156 88.94l11.153 8.478M140.31 97.418l-4.62 13.227" stroke-width="1.2" stroke="#f00" stroke-miterlimit="10" fill="none"/><path d="M135.69 110.645l-4.612 13.222" stroke-width="1.2" stroke="#000" stroke-miterlimit="10" fill="none"/><path d="M136.31 90.918h9v13h-9zm0 0" fill="#fff"/><use xlink:href="#c" x="136.309" y="100.819" fill="#f00"/><path d="M131.078 123.867l15.97 23.02M147.047 146.887l-11.945 25.34M147.047 146.887l27.922-2.325M150.387 153.223l22.336-1.86M135.102 172.227l15.972 23.015M142.113 170.77l12.778 18.414M151.074 195.242l27.918-2.324M178.992 192.918l5.973-12.668" stroke-width="1.2" stroke="#000" stroke-miterlimit="10" fill="none"/><path d="M184.965 180.25l5.976-12.672M199.402 212.113l-10.207-9.597" stroke-width="1.2" stroke="#00f" stroke-miterlimit="10" fill="none"/><path d="M189.195 202.516l-10.203-9.598" stroke-width="1.2" stroke="#000" stroke-miterlimit="10" fill="none"/><path d="M201.875 205.39l-8.164-7.675" stroke-width="1.2" stroke="#00f" stroke-miterlimit="10" fill="none"/><path d="M193.71 197.715l-8.16-7.68" stroke-width="1.2" stroke="#000" stroke-miterlimit="10" fill="none"/><path d="M190.94 167.578l-7.987-11.508" stroke-width="1.2" stroke="#00f" stroke-miterlimit="10" fill="none"/><path d="M182.953 156.07l-7.984-11.507" stroke-width="1.2" stroke="#000" stroke-miterlimit="10" fill="none"/><path d="M190.94 167.578l13.896 1.766" stroke-width="1.2" stroke="#00f" stroke-miterlimit="10" fill="none"/><path d="M204.836 169.344l13.894 1.765" stroke-width="1.2" stroke="#000" stroke-miterlimit="10" fill="none"/><path d="M186.94 161.078h8v13h-8zm0 0" fill="#fff"/><use xlink:href="#b" x="186.941" y="170.979" fill="#00f"/><path d="M218.73 171.11l2.618 13.76" stroke-width="1.2" stroke="#000" stroke-miterlimit="10" fill="none"/><path d="M221.348 184.87l2.613 13.763" stroke-width="1.2" stroke="#00f" stroke-miterlimit="10" fill="none"/><path d="M212.777 175.094l2.094 11.008" stroke-width="1.2" stroke="#000" stroke-miterlimit="10" fill="none"/><path d="M214.87 186.102l2.09 11.007" stroke-width="1.2" stroke="#00f" stroke-miterlimit="10" fill="none"/><path d="M218.73 171.11l19.196-20.407" stroke-width="1.2" stroke="#000" stroke-miterlimit="10" fill="none"/><path d="M223.96 198.633l-24.558 13.48" stroke-width="1.2" stroke="#00f" stroke-miterlimit="10" fill="none"/><path d="M219.96 192.133h8v13h-8zm0 0" fill="#fff"/><use xlink:href="#b" x="219.961" y="202.034" fill="#00f"/><path d="M195.402 205.613h8v13h-8zm0 0" fill="#fff"/><use xlink:href="#b" x="195.402" y="215.515" fill="#00f"/><path d="M237.926 150.703l6.414-27.273M264.75 142.625l-26.824 8.078M244.34 123.43l20.41 19.195" stroke-width="1.2" stroke="#000" stroke-miterlimit="10" fill="none"/></g></svg>
